modules/micon/icons/PuncKeyLeftBottom.svg

<svg xmlns="http://www.w3.org/2000/svg" viewBox="0 0 1681 1024"><path d="M1545 320q34.5 32.5 60 74.25t42.25 88 25.25 94.75 8.5 95q0 47-8.25 95.5t-25 94.5-42.5 87.5-60.25 74.5h-43v-4q35.5-31.5 62-72.25t44.25-86.75 26.5-94.25 8.75-94.75q0-47-8.5-95.25t-26.25-93.75-44.25-86-62.5-72.5v-4.5h43zm-984 148h37v556h-238v-40h201v-516zm-561-155h238v39h-200.5v516.5h-37.5v-555.5zm1077.5 359q0-46.5 8.25-95.25t25-94.75 42.5-87.75 60.25-74.25h43v4.5q-16 13-29.25 29.25t-25.25 32.75q-44.5 62-65.75 135.75t-21.25 149.75q0 47 8.5 95.5t26 94.25 44 86.25 63 72v4h-43q-34.5-32.5-60.25-74.25t-42.5-88-25-94.75-8.25-95z"/></svg>

<svg xmlns="http://www.w3.org/2000/svg" viewBox="0 0 1681 1024"><path d="M1545 320q34.5 32.5 60 74.25t42.25 88T1672.5 577t8.5 95q0 47-8.25 95.5t-25 94.5-42.5 87.5T1545 1024h-43v-4q35.5-31.5 62-72.25t44.25-86.75 26.5-94.25 8.75-94.75q0-47-8.5-95.25T1608.75 483t-44.25-86-62.5-72.5V320h43zM561 468h37v556H360v-40h201V468zM0 313h238v39H37.5v516.5H0V313zm1077.5 359q0-46.5 8.25-95.25t25-94.75 42.5-87.75T1213.5 320h43v4.5q-16 13-29.25 29.25T1202 386.5q-44.5 62-65.75 135.75T1115 672q0 47 8.5 95.5t26 94.25 44 86.25 63 72v4h-43q-34.5-32.5-60.25-74.25t-42.5-88-25-94.75-8.25-95z"/></svg>
